X:25
T:Flowing Tide
Z: id:dc-hornpipe-24
M:C|
L:1/8
K:G Major
D|G2 GB dGBd|GBdg bgag|egdg Bdge|dBAG edBA|!
G2 GB dGBd|GBdg bgag|egdg Bdge|dBAB G3:|!
D|GFGB AGED|gfge dBGB|ceBd AcGB|(3cBA BG AGEG|!
DGBd BABd|(3cBA BG AGEG|DGBd gdBd|cAFA G3:|!

